X:1
T:Title
%%score { ( 1 3 5 ) | ( 2 4 6 ) }
L:1/8
M:4/4
K:Db
V:1 treble nm="Grand Piano"
V:3 treble 
V:5 treble 
V:2 bass 
V:4 bass 
V:6 bass 
V:1
 z4 z2[Q:1/4=100] D2 | F3 F G2 F2 | [DE]2 [CA]2 [DA]2 [DB]2 | [DE]2 [DF]2 .[DG]2 [A,G]-[A,CG] | %4
[M:3/4] F6 |[M:1/4] E2 |[M:4/4] D2 F2 [EA]2 [Ed]2 | [Ec]3 [EB] [FA]2 [E=G]F | E2 A2 A2 =G2 | %9
[M:5/8] [A,CA]-[A,CA]- [A,CA]3 |[M:3/8] EEF |[M:4/4] G6[K:bass][K:treble] z2 | %12
 A6[K:bass][K:treble] z2 | [Fc]2 [Fc]2 [_Fc]2 [Fc]2 | c6 z2 | [DFd]3 [Fd] cFGF | %16
 [Dc]2 .[DB]2 [B,EG]2[K:bass] [G,B,E]2 | [F,A,D]2[K:treble] [A,DF]2 [A,CF]3[K:bass] [G,CE] | %18
[M:3/4] [F,D]6 |] %19
V:2
 z4 z2 [D,F,]2 | [D,A,D]3 [D,=A,D] [D,B,D]2 [D,_A,D]2 | [A,,A,]2 [A,,G,]2 [D,F,]2 [G,,G,]2 | %3
 [A,,G,]2 [A,,F,]2 z C A,,2 |[M:3/4] [D,A,D]6 |[M:1/4] [G,A,C]2 | %6
[M:4/4] [F,A,]2 [D,A,D]2 [C,A,]2 [B,,=G,]2 | z4 z2 [D,A,]2 | [E,A,C]2 [E,A,C]2 [E,B,D]2 [E,B,D]2 | %9
[M:5/8] A,,-A,,- A,,3 |[M:3/8] CCD |[M:4/4] E6[K:treble] z2 | F6[K:bass] z2 | %13
 [C,A,]2 [C,A,]2 [C,=G,]2 [C,G,]2 | .[A,F]2 z2 z4 | D,3 [D,A,] [F,=A,E][F,A,E][F,A,E][F,A,E] | %16
 [B,,B,]2 z =D E,2 G,,2 | A,,2 A,,2 A,,3 A,, |[M:3/4] D,6 |] %19
V:3
 x8 | x8 | x8 | z4 z2 .B,2 |[M:3/4] x6 |[M:1/4] x2 |[M:4/4] x8 | x8 | x8 |[M:5/8] x5 |[M:3/8] x3 | %11
[M:4/4] z[K:bass] A,A,A, z E[K:treble]FG | z[K:bass] A,F,A,[K:treble] D2 [B,FB]2 | x8 | %14
 z FFF [A,G][EGc][EGB][EGA] | x8 | x6[K:bass] x2 | x2[K:treble] x5[K:bass] x |[M:3/4] x6 |] %19
V:4
 x8 | x8 | x8 | z4 [A,,E,]2 z2 |[M:3/4] x6 |[M:1/4] x2 |[M:4/4] x8 | %7
 [A,,A,]3 [B,,=G,] [C,A,]2 z D | x8 |[M:5/8] x5 |[M:3/8] x3 |[M:4/4] z A,,A,,A,, z[K:treble] CDE | %12
 z[K:bass] D,D,D, D,2 D,2 | x8 | F,-[F,-A,][F,-A,][F,A,] E,A,,B,,C, | x8 | z2 [B,,B,]2 z4 | x8 | %18
[M:3/4] x6 |] %19
V:5
 x8 | x8 | x8 | x8 |[M:3/4] x6 |[M:1/4] x2 |[M:4/4] x8 | x8 | x8 |[M:5/8] x5 |[M:3/8] x3 | %11
[M:4/4] z4[K:bass] A,2[K:treble] z2 | x[K:bass] x3[K:treble] x4 | x8 | x8 | x8 | x6[K:bass] x2 | %17
 x2[K:treble] x5[K:bass] x |[M:3/4] x6 |] %19
V:6
 x8 | x8 | x8 | x8 |[M:3/4] x6 |[M:1/4] x2 |[M:4/4] x8 | x8 | x8 |[M:5/8] x5 |[M:3/8] x3 | %11
[M:4/4] z4 A,,2[K:treble] z2 | x[K:bass] x7 | x8 | x8 | x8 | x8 | x8 |[M:3/4] x6 |] %19

